assets/icons/qvision/add_link.svg

<svg xmlns="http://www.w3.org/2000/svg" height="24" viewBox="0 0 24 24" width="24"><path d="M0 0h24v24H0" fill="none"/><path d="M8 11h8v2H8zm12.1 1H22c0-2.76-2.24-5-5-5h-4v1.9h4c1.71 0 3.1 1.39 3.1 3.1zM3.9 12c0-1.71 1.39-3.1 3.1-3.1h4V7H7c-2.76 0-5 2.24-5 5s2.24 5 5 5h4v-1.9H7c-1.71 0-3.1-1.39-3.1-3.1zM19 12h-2v3h-3v2h3v3h2v-3h3v-2h-3z"/></svg>

<svg width="24" height="24" viewBox="0 0 24 24" fill="none" xmlns="http://www.w3.org/2000/svg">
<g clip-path="url(#clip0_147_2064)">
<path d="M8 11H16V13H8V11ZM20.1 12H22C22 9.24 19.76 7 17 7H13V8.9H17C18.71 8.9 20.1 10.29 20.1 12ZM3.9 12C3.9 10.29 5.29 8.9 7 8.9H11V7H7C4.24 7 2 9.24 2 12C2 14.76 4.24 17 7 17H11V15.1H7C5.29 15.1 3.9 13.71 3.9 12ZM19 12H17V15H14V17H17V20H19V17H22V15H19V12Z" fill="#323232"/>
</g>
<defs>
<clipPath id="clip0_147_2064">
<rect width="24" height="24" fill="white"/>
</clipPath>
</defs>
</svg>
